X:1
T:Soyons plaisans
T:Soyons plaisans
T:Noé Faignient
C:Noé Faignient
%%score [ 1 2 3 4 ]
L:1/8
Q:1/4=120
M:2/2
K:F
V:1 treble nm="Soprano" snm="S"
V:2 treble nm="Alto" snm="A"
V:3 treble-8 nm="Tenor" snm="T"
V:4 bass nm="Bass" snm="B"
V:1
 G2 G^F GBAG | ^F2 FG A2 B2 | AAGA A G2 ^F | G4 G2 G^F | GBAG ^F2 FG | A2 B2 AAGA | A G2 ^F G4 | %7
w: Soy- ons plai- sans, soy- ons plai-|sans tous ga- lans, en|de- lais- sant me- lan- co- li-|e, bu- vons d'au-|tant, bu- vons d'au- tant en me-|nant tous- jours vie gay' et|jo- li- * e,|
 z2 G2 ^F2 G2 | A4 z2 B2 | ABGG ^F2 d2 | cBBA B4 | z2 B2 B2 B2 | A4 z2 A2 | d3 c B2 A2 | G4 F4- | %15
w: lais- sons en-|nuy, pre-|nons no- tre plai- sir, pre-|nons no- tre plai- sir,|car en la|fin, le|meil- leur nous de-|meu- re,|
 F4 z2 F2 | B3 A G4 | G8 | ^F4 G2 GF | GBAG ^F2 A2 | BBBB A G2 ^F | G8 | z2 d2 dddd | cBAG FG A2- | %24
w: _ puis-|qu'il nous faut|mou-|rir, soy- ons plai-|sans soy- ons plai- sans en-|co- re de- mi heu- * *|re,|en- co- re de- mi|heu- * * * * * *|
 AG G3 ^F/E/ F2 | G8- | G8- | G8 |] %28
w: |re.|_||
V:2
 D2 DD DFFD | D2 DE F2 F2 | FFDF _EE D2 | =B,4 D2 DD | DFFD D2 DE | F2 F2 FFDF | _EE D2 =B,2 D2 | %7
w: Soy- ons plai- sans, soy- ons plai-|sans tous ga- lans, en|de- lais- sant me- lan- co- li-|e, bu- vons d'au-|tant, bu- vons d'au- tant en me-|nant tous- jours vie gay' et|jo- li- * e, lais-|
 D2 C2 D2 D2 | FFEE F2 D2 | FF_EE D2 F2 | FDGF D4 | G4 F2 E2 | F2 C2 F3 E | D6 F2 | _E3 D C4 | %15
w: sons en- nuy, pre-|nons no- tre pai- sir, pre-|nons no- tre plai- sir, pre-|nons no- tre plai- sir,|car en la|fin le meil- leur|nous de-|meu- * *|
 D8- | D4 B,4 | _E3 E E2 E2 | D4 D2 DD | DFFD D2 F2 | FFFF E>D C2 | D4 D2 DD | F3 E D2 B,2 | %23
w: re,|_ puis-|qu'il nous faut mou-|rir, soy- ons plai-|sans, soy- ons plai- sans en-|co- re de- mi heu- * *|re, en- co- re|de- * * mi'|
 C2 F2 F2 FF | _E2 C2 D4 | =B,2 D2 DDDD | _E4 D4- | D8 |] %28
w: heu- re, en- co- re|de- mi heu-|re, en co- re de- mi|heu- re.|_|
V:3
 B2 BA BdcB | A2 A=B c2 d2 | ccBd Bc A2 |"^b" G4 B2 BA | BdcB A2 A=B | c2 d2 ccBd | Bc A2 G2 z G | %7
w: Soy- ons plai- sans, soy- ons plai-|sans tous ga- lans, en|d- lais- sant me- lan- co- li-|e, bu- vons d'au-|tant, bu- vons d'au- tant n me-|nant tous- jours vie gay' et|jo- li- * e, lais-|
 ^F2 G2 A2 =B2 | cdd^c d2 B2 | cdBc A2 B2 | ABcc B2 d2 | BABc d2 B2 | c2 A2 d3 c | B2 A2 B2 F2 | %14
w: sons en- nuy, pre-|nons no- tre plai- sir, pre-|nons no- tre plai- sir, pre-|nons no- tre plai- sir, car|en- _ _ _ _ la|fin le meil- *|* leur nous de|
 GA B3 A/G/ A2 | B2 F2 B3 A | G2 F2 G4 | c8 | A4 B2 BA | BdcB A2 d2 | dddd c>B A2 | G2 B2 BBBB | %22
w: meu- * * * * *|re, puis- qu'il nous|faut mou- rir,|mou-|rir, soy- ons plai-|sans, soy- ons plai- sans en-|co- re de- mi heu- * *|re, en- co- re de- mi|
 AG A3 G/F/ G2 | A2 A2 A2 A2 | c2 G2 BA/G/ A2 | G2 =B2 BBBB | c4 =B4- | B8 |] %28
w: heu- * * * * *|re, en- co- re|de- mi heu- * * *|re, en- co- re de- mi|heu- re.|_|
V:4
 G,2 G,D, G,D,F,G, | D,2 D,G, F,2 B,,2 | F,F,G,D, _E,C, D,2 | G,,4 G,2 G,D, | G,D,F,G, D,2 D,G, | %5
w: ons plai- sans, soy- ons plai- sans|tous ga- lans en de-|lais- sant me- lan- co- li- e,|bu- vons d'au- tant,|bu- vons d'au- tant en me- nant|
 F,2 B,,2 F,F,G,D, | _E,C, D,2 G,,2 G,,2 | D,2 _E,2 D,2 z G, | F,D,A,A, D,2 G,2 | %9
w: tous- jours vie gay' et jo-|li- e * lais- sons|en- nuy, pre- nons|no- tre plai- sir, pre- nons|
 F,D,_E,C, D,2 B,,2 | F,G,_E,F, B,,2 B,2 | G,F,G,A, B,2 G,2 | F,4 D,4- | D,4 G,2 D,2 | %14
w: no- tre plai- sir, pre- nons|no- tre plai- sir, car en|la _ _ _ _ fin|le meil-|_ leur nous|
 _E,2 E,2 F,4 | B,,8 | z2 B,,2 _E,3 D, | C,4 C,4 | D,4 G,2 G,D, | G,D,F,G, D,4 |"^-natural" z8 | %21
w: de- meu- re,|puis-|qu'il nous faut|mou- rir,|soy- ons plai- sans,|soy- ons plai- sans, en-||
 z2 G,2 G,G,G,G, | F,E,D,C, B,,4 | A,,2 D,2 D,2 F,2 | C,2 _E,2 D,4 | G,,2 G,2 G,G,G,G, | %26
w: co- re de- mi heu-|re, * * * *|en- co- re de-|mi heu- re,|en- co- re de- mi heu-|
 C,4 G,,4- | G,,8 |] %28
w: re. *||

